src/16/actions/folder-stash.svg

<svg xmlns="http://www.w3.org/2000/svg" viewBox="0 0 16 16"><path d="M2 2v12h7v-1H3V7h11V4H9.008l-2-2L7 2.008V2H2zm1 1h3.592l1.002 1H7v.008L6.992 4l-2 2H3V3zm8 5v1h-1v5h5V9h-1V8h-3zm0 2h3v3h-3v-3z" fill="currentColor" color="#5d656b"/></svg>

<svg xmlns="http://www.w3.org/2000/svg" viewBox="0 0 16 16">
  <defs id="defs3051">
    <style type="text/css" id="current-color-scheme">
      .ColorScheme-Text {
        color:#5d656b;
      }
      </style>
  </defs>
 <path style="fill:currentColor;fill-opacity:1;stroke:none" 
       d="M 2 2 L 2 3 L 2 6 L 2 7 L 2 13 L 2 14 L 9 14 L 9 13 L 3 13 L 3 7 L 13 7 L 14 7 L 14 6 L 14 5 L 14 4 L 9.0078125 4 L 7.0078125 2 L 7 2.0078125 L 7 2 L 3 2 L 2 2 z M 3 3 L 6.5917969 3 L 7.59375 4 L 7 4 L 7 4.0078125 L 6.9921875 4 L 4.9921875 6 L 3 6 L 3 3 z M 11 8 L 11 9 L 10 9 L 10 13 L 10 14 L 15 14 L 15 13 L 15 9 L 14 9 L 14 8 L 11 8 z M 11 10 L 14 10 L 14 13 L 11 13 L 11 10 z "
     class="ColorScheme-Text"
     />
</svg>
